X:1
T:Fowler, 84.84.84
T:Fowler, 84.84.84
T:Robert Guy McCutchan, 1930
T:Public Domain Courtesy of the Cyber Hymnal™
C:Robert Guy McCutchan, 1930
Z:Public Domain
Z:Courtesy of the Cyber Hymnal™
%%score ( 1 2 ) ( 3 4 )
L:1/8
Q:1/4=105
M:6/8
K:Eb
V:1 treble 
V:2 treble 
V:3 bass 
V:4 bass 
V:1
 [EG][EG][EG] [EB]2 E | DE[B,F] [B,E]2 [EG] | [EF]3 [DB]2 [FA] | [EG]3- [EG]2 z | %4
 FF[=EG] [FA][_EG][DF] | [EG]2 [EG] [GB]3 | [FB]3 =AB[Fc] | [FB]3- [FB]2 z | %8
 [FB][Fc][Fd] [Ee]2 [=EB] | [FB]2 [FA] G2 F | [B,E]3 [CG]2 [DF] | E6 |] %12
V:2
 x5 E | B,2 x4 | x6 | x6 | FF x4 | x6 | x3 F2 x | x6 | x6 | x3 C3 | x6 | E6 |] %12
V:3
 [E,B,][E,B,][E,B,] [G,B,]2 [G,B,] | A,2 [D,A,] [E,G,]2 [E,B,] | [A,,C]3 [B,,F,]2 [D,B,] | %3
 [E,B,]3- [E,B,]2 z | [B,D][A,C][G,B,] [F,C] B,B, | B,2 [E,C] [=E,_D]3 | [F,D]3 CD[F,E] | %7
 [B,D]3- [B,D]2 z | [B,D][=A,C][_A,B,] [G,B,]2 [G,C] | [F,C]2 [F,C] B,2 A, | %10
 [B,,G,]3 [B,,A,]2 [B,,A,] | [E,G,]6 |] %12
V:4
 x6 | F,E, x4 | x6 | x6 | x4 B,B, | x6 | x3 F,2 x | x6 | x6 | x3 A,,3 | x6 | x6 |] %12

